COLOR/status 16/16/dialog-warning.svg

<svg height="16.002" width="16.002" xmlns="http://www.w3.org/2000/svg" xmlns:xlink="http://www.w3.org/1999/xlink"><linearGradient id="a" gradientTransform="matrix(.24549099 0 0 .24549109 .262215 223.81985)" gradientUnits="userSpaceOnUse" x1="13.735326" x2="38.099998" y1="249.69423" y2="292.76666"><stop offset="0" stop-color="#da1636"/><stop offset="1" stop-color="#f22c42"/></linearGradient><g transform="matrix(1.2829825 0 0 1.2829825 -.169728 -364.86486)"><ellipse cx="-6.367763" cy="-291.0148" opacity=".1" rx="5.456036" ry="5.06632" transform="scale(-1)"/><circle cx="6.367763" cy="290.62506" fill="url(#a)" r="5.845754"/><path d="m328.6374 241.3966q0 1.07082-.0765 1.95042-.0765.86686-.19121 1.73371h-.73938q-.11473-.86685-.19122-1.73371-.0765-.8796-.0765-1.95042v-2.3966h1.27479zm.21672 5.74929q0 .34419-.22947.59915-.22946.25496-.62464.25496-.39519 0-.62465-.25496-.22946-.25496-.22946-.59915 0-.34419.22946-.59915.22946-.25496.62465-.25496.39518 0 .62464.25496.22947.25496.22947.59915z" fill="#fff" transform="matrix(.77943386 0 0 .77943386 -249.28655 101.22265)"/><path d="m8 .50195312a7.5000003 7.5000003 0 0 0 -7.5 7.49999998 7.5000003 7.5000003 0 0 0 .00976562.2871094 7.5000003 7.5000003 0 0 1 7.49023438-7.2871094 7.5000003 7.5000003 0 0 1 7.490234 7.2128907 7.5000003 7.5000003 0 0 0 .009766-.2128907 7.5000003 7.5000003 0 0 0 -7.5-7.49999998z" fill="#fff" opacity=".3" transform="matrix(.77943386 0 0 .77943386 .132292 284.38803)"/><path d="m6.3681525 296.47081a5.8457542 5.8457542 0 0 0 5.8457505-5.84576 5.8457542 5.8457542 0 0 0 -.008-.22378 5.8457542 5.8457542 0 0 1 -5.8381405 5.67982 5.8457542 5.8457542 0 0 1 -5.83813995-5.62197 5.8457542 5.8457542 0 0 0 -.008.16593 5.8457542 5.8457542 0 0 0 5.84575995 5.84576z" fill="#030303" opacity=".2"/></g></svg>

<?xml version="1.0" encoding="UTF-8" standalone="no"?>
<svg
   xmlns:dc="http://purl.org/dc/elements/1.1/"
   xmlns:cc="http://creativecommons.org/ns#"
   xmlns:rdf="http://www.w3.org/1999/02/22-rdf-syntax-ns#"
   xmlns:svg="http://www.w3.org/2000/svg"
   xmlns="http://www.w3.org/2000/svg"
   xmlns:xlink="http://www.w3.org/1999/xlink"
   xmlns:sodipodi="http://sodipodi.sourceforge.net/DTD/sodipodi-0.dtd"
   xmlns:inkscape="http://www.inkscape.org/namespaces/inkscape"
   height="16.002"
   width="16.002"
   version="1.1"
   id="svg4"
   sodipodi:docname="dialog-warning.svg"
   inkscape:version="0.92.5 (2060ec1f9f, 2020-04-08)">
  <metadata
     id="metadata10">
    <rdf:RDF>
      <cc:Work
         rdf:about="">
        <dc:format>image/svg+xml</dc:format>
        <dc:type
           rdf:resource="http://purl.org/dc/dcmitype/StillImage" />
      </cc:Work>
    </rdf:RDF>
  </metadata>
  <defs
     id="defs8">
    <linearGradient
       inkscape:collect="always"
       xlink:href="#linearGradient876-3"
       id="linearGradient8588-0-1-5"
       gradientUnits="userSpaceOnUse"
       gradientTransform="matrix(0.24549099,0,0,0.24549109,0.26221497,223.81985)"
       x1="13.735326"
       y1="249.69423"
       x2="38.099998"
       y2="292.76666" />
    <linearGradient
       inkscape:collect="always"
       id="linearGradient876-3">
      <stop
         style="stop-color:#da1636;stop-opacity:1"
         offset="0"
         id="stop872-3" />
      <stop
         style="stop-color:#f22c42;stop-opacity:1"
         offset="1"
         id="stop874-5" />
    </linearGradient>
  </defs>
  <sodipodi:namedview
     pagecolor="#ffffff"
     bordercolor="#666666"
     borderopacity="1"
     objecttolerance="10"
     gridtolerance="10"
     guidetolerance="10"
     inkscape:pageopacity="0"
     inkscape:pageshadow="2"
     inkscape:window-width="1920"
     inkscape:window-height="1016"
     id="namedview6"
     showgrid="false"
     inkscape:zoom="14.748156"
     inkscape:cx="-4.2039153"
     inkscape:cy="8.0010005"
     inkscape:window-x="0"
     inkscape:window-y="27"
     inkscape:window-maximized="1"
     inkscape:current-layer="g821" />
  <g
     id="g821"
     transform="matrix(1.2829825,0,0,1.2829825,-0.16972789,-364.86486)">
    <ellipse
       style="display:inline;opacity:0.1;fill:#000000;fill-opacity:1;stroke:none;stroke-width:1.52330768;stroke-linecap:round;stroke-linejoin:round;stroke-miterlimit:4;stroke-dasharray:none;stroke-opacity:1;enable-background:new"
       id="path9498-0-0-2-3-3"
       cx="-6.3677626"
       cy="-291.0148"
       transform="scale(-1)"
       rx="5.4560356"
       ry="5.0663199" />
    <circle
       style="display:inline;opacity:1;fill:url(#linearGradient8588-0-1-5);fill-opacity:1;stroke:none;stroke-width:1.45707667;stroke-linecap:round;stroke-linejoin:round;stroke-miterlimit:4;stroke-dasharray:none;stroke-opacity:1;enable-background:new"
       id="path9498-6-5-6-8"
       cx="6.3677626"
       cy="290.62506"
       r="5.8457541" />
    <g
       aria-label="!"
       style="font-style:normal;font-weight:normal;font-size:12.74787521px;line-height:1000%;font-family:sans-serif;text-align:center;letter-spacing:0px;word-spacing:0px;text-anchor:middle;display:inline;fill:#ffffff;fill-opacity:1;stroke:none;stroke-width:0.31869692px;stroke-linecap:butt;stroke-linejoin:miter;stroke-opacity:1;enable-background:new"
       id="text937"
       transform="matrix(0.77943386,0,0,0.77943386,-249.28655,101.22265)">
      <path
         inkscape:connector-curvature="0"
         d="m 328.6374,241.3966 q 0,1.07082 -0.0765,1.95042 -0.0765,0.86686 -0.19121,1.73371 h -0.73938 q -0.11473,-0.86685 -0.19122,-1.73371 -0.0765,-0.8796 -0.0765,-1.95042 V 239 h 1.27479 z m 0.21672,5.74929 q 0,0.34419 -0.22947,0.59915 Q 328.39519,248 328.00001,248 q -0.39519,0 -0.62465,-0.25496 -0.22946,-0.25496 -0.22946,-0.59915 0,-0.34419 0.22946,-0.59915 0.22946,-0.25496 0.62465,-0.25496 0.39518,0 0.62464,0.25496 0.22947,0.25496 0.22947,0.59915 z"
         style="font-style:normal;font-variant:normal;font-weight:normal;font-stretch:normal;font-family:Ubuntu;-inkscape-font-specification:Ubuntu;text-align:center;text-anchor:middle;fill:#ffffff;fill-opacity:1;stroke-width:0.31869692px"
         id="path957" />
    </g>
    <path
       style="display:inline;opacity:0.3;fill:#ffffff;fill-opacity:1;stroke:none;stroke-width:1.86940384;stroke-linecap:round;stroke-linejoin:round;stroke-miterlimit:4;stroke-dasharray:none;stroke-opacity:1;enable-background:new"
       d="M 8 0.50195312 A 7.5000003 7.5000003 0 0 0 0.5 8.0019531 A 7.5000003 7.5000003 0 0 0 0.50976562 8.2890625 A 7.5000003 7.5000003 0 0 1 8 1.0019531 A 7.5000003 7.5000003 0 0 1 15.490234 8.2148438 A 7.5000003 7.5000003 0 0 0 15.5 8.0019531 A 7.5000003 7.5000003 0 0 0 8 0.50195312 z "
       transform="matrix(0.77943386,0,0,0.77943386,0.13229166,284.38803)"
       id="circle857" />
    <path
       id="path866"
       d="m 6.3681525,296.47081 a 5.8457542,5.8457542 0 0 0 5.8457505,-5.84576 5.8457542,5.8457542 0 0 0 -0.008,-0.22378 5.8457542,5.8457542 0 0 1 -5.8381405,5.67982 5.8457542,5.8457542 0 0 1 -5.83813995,-5.62197 5.8457542,5.8457542 0 0 0 -0.008,0.16593 5.8457542,5.8457542 0 0 0 5.84575995,5.84576 z"
       style="display:inline;opacity:0.2;fill:#030303;fill-opacity:1;stroke:none;stroke-width:1.45707667;stroke-linecap:round;stroke-linejoin:round;stroke-miterlimit:4;stroke-dasharray:none;stroke-opacity:1;enable-background:new"
       inkscape:connector-curvature="0" />
  </g>
</svg>
